X:1
T:Title
%%score { ( 1 3 ) | 2 }
L:1/8
Q:1/4=126
M:6/4
K:G
V:1 treble nm="Grand Piano"
V:3 treble 
V:2 bass 
V:1
 [B,D]4 [B,G]2 [DB]4 [B,D]2 | [CE]4 [Ec]2 [Ec]2 [DB]4 | B4 c2 d4 G2 | [FA]4 [GB]2 [DA]6 | %4
w: William~J.~Kirkpatrick * * *||||
 [B,D]4 [B,G]2 [DB]4 [B,D]2 | [CE]4 [Ec]2 [Ec]2 [DB]4 | B4 c2 d4 [DG][EA] | [DB]4 [DA]2 [B,G]6 | %8
w: ||||
 A4 B2 A4 D2 | [Fc]4 [GB]2 B2 A4 | B4 c2 d4 [Ge]2 | d4 [E^c]2 [Fd]6 | d4 B2 G4 D2 | %13
w: |||||
 E4 [Ec]2 [Ec]2 [DB]4 | B4 c2 d4 [DG][EA] | [DB]4 [CDA]2 [B,DG]6 |] %16
w: |||
V:2
 [G,,G,]4 [G,,G,]2 [G,,G,]4 [G,,G,]2 | [C,G,]4 [C,G,]2 [G,,G,]2 [G,,G,]4 | %2
 [G,D]4 [G,A,D]2 [G,B,D]4 [G,B,D]2 | [D,A,]4 [D,G,]2 [D,F,]6 | %4
 [G,,G,]4 [G,,G,]2 [G,,G,]4 [G,,G,]2 | [C,G,]4 [C,G,]2 [G,,G,]2 [G,,G,]4 | %6
 [G,D]4 [G,A,D]2 [G,B,D]4 B,,C, | [D,G,]4 [D,F,]2 [G,,G,]6 | [D,F,D]4 [D,G,D]2 [D,F,D]4 [D,F,]2 | %9
 [D,A,]4 [D,G,]2 [D,G,D]2 [D,F,D]4 | [G,D]4 [G,A,D]2 [G,B,G]4 [E,B,]2 | %11
 [A,F]4[K:bass] [A,,A,]2 [D,A,]6 | [G,B,G]4 [G,DG]2[K:bass] [G,B,D]4 [G,B,]2 | %13
 [C,G,C]4 [C,G,]2 [G,,G,]2 [G,,G,]4 | [G,D]4 [G,A,D]2 [G,B,G]4[K:bass] B,,C, | [D,G,]4 D,2 G,,6 |] %16
V:3
 x12 | x12 | x12 | x12 | x12 | x12 | z6 z4 G,2 | x12 | x12 | x12 | x12 | x12 | x12 | x12 | %14
 z6 z4 G,2 | x12 |] %16

